app/assets/v2/images/results/media-start-time.svg

<svg fill="none" height="215" viewBox="0 0 215 215" width="215" xmlns="http://www.w3.org/2000/svg"><path clip-rule="evenodd" d="m106.5 179c36.727 0 66.5-29.773 66.5-66.5 0-36.7269-29.773-66.5-66.5-66.5-36.7269 0-66.5 29.7731-66.5 66.5 0 36.727 29.7731 66.5 66.5 66.5zm0-11c30.652 0 55.5-24.848 55.5-55.5 0-30.6518-24.848-55.5-55.5-55.5-30.6518 0-55.5 24.8482-55.5 55.5 0 30.652 24.8482 55.5 55.5 55.5z" fill="#bbafd0" fill-rule="evenodd"/><path d="m106.339 70.3899c6.274 0 12.467 1.4152 18.117 4.1402 5.651 2.7249 10.614 6.6895 14.521 11.5985 3.906 4.909 6.654 10.6359 8.041 16.7544 1.386 6.118 1.374 12.471-.035 18.584s-4.179 11.83-8.103 16.724c-3.925 4.895-8.903 8.841-14.564 11.545s-11.858 4.096-18.132 4.072c-6.2734-.023-12.4608-1.461-18.1014-4.207l18.2564-37.502z" fill="#00ed92"/><g fill="#180041"><path clip-rule="evenodd" d="m106.015 25.5c3.313 0 6 2.6863 6 6v7c0 3.3137-2.687 6-6 6-3.314 0-6-2.6863-6-6v-7c0-3.3137 2.686-6 6-6z" fill-rule="evenodd"/><path clip-rule="evenodd" d="m153.977 42.417c2.707 1.9124 3.35 5.6565 1.438 8.3627l-4 5.6603c-1.913 2.7061-5.657 3.3496-8.363 1.4372s-3.35-5.6565-1.437-8.3627l4-5.6602c1.912-2.7062 5.656-3.3497 8.362-1.4373z" fill-rule="evenodd"/><path clip-rule="evenodd" d="m78.5 30c0-3.3137 2.6863-6 6-6h42.5c3.314 0 6 2.6863 6 6s-2.686 6-6 6h-42.5c-3.3137 0-6-2.6863-6-6z" fill-rule="evenodd"/><path clip-rule="evenodd" d="m107 177c35.899 0 65-29.101 65-65 0-35.8985-29.101-65-65-65-35.8985 0-65 29.1015-65 65 0 35.899 29.1015 65 65 65zm0 8c40.317 0 73-32.683 73-73 0-40.3168-32.683-73-73-73-40.3168 0-73 32.6832-73 73 0 40.317 32.6832 73 73 73z" fill-rule="evenodd"/><path clip-rule="evenodd" d="m106.53 69.2887c2.761 0 5 2.2386 5 5v38.0003c0 .753-.17 1.496-.497 2.173l-16.0301 33.211c-1.2003 2.487-4.1894 3.53-6.6763 2.33s-3.5299-4.19-2.3295-6.676l15.5329-32.182v-36.8563c0-2.7614 2.238-5 5-5z" fill-rule="evenodd"/><path d="m118 113c0 6.627-5.373 12-12 12-6.6274 0-12-5.373-12-12s5.3726-12 12-12c6.627 0 12 5.373 12 12z"/><path clip-rule="evenodd" d="m106.5 163c27.89 0 50.5-22.61 50.5-50.5 0-27.8904-22.61-50.5-50.5-50.5-27.8904 0-50.5 22.6096-50.5 50.5 0 27.89 22.6096 50.5 50.5 50.5zm0 6c31.204 0 56.5-25.296 56.5-56.5 0-31.2041-25.296-56.5-56.5-56.5-31.2041 0-56.5 25.2959-56.5 56.5 0 31.204 25.2959 56.5 56.5 56.5z" fill-rule="evenodd"/></g><path d="m112 113c0 3.314-2.686 6-6 6s-6-2.686-6-6 2.686-6 6-6 6 2.686 6 6z" fill="#fff"/></svg>

<svg width="215" height="215" viewBox="0 0 215 215" fill="none" xmlns="http://www.w3.org/2000/svg">
<path fill-rule="evenodd" clip-rule="evenodd" d="M106.5 179C143.227 179 173 149.227 173 112.5C173 75.7731 143.227 46 106.5 46C69.7731 46 40 75.7731 40 112.5C40 149.227 69.7731 179 106.5 179ZM106.5 168C137.152 168 162 143.152 162 112.5C162 81.8482 137.152 57 106.5 57C75.8482 57 51 81.8482 51 112.5C51 143.152 75.8482 168 106.5 168Z" fill="#BBAFD0"/>
<path d="M106.339 70.3899C112.613 70.3899 118.806 71.8051 124.456 74.5301C130.107 77.255 135.07 81.2196 138.977 86.1286C142.883 91.0376 145.631 96.7645 147.018 102.883C148.404 109.001 148.392 115.354 146.983 121.467C145.574 127.58 142.804 133.297 138.88 138.191C134.955 143.086 129.977 147.032 124.316 149.736C118.655 152.44 112.458 153.832 106.184 153.808C99.9106 153.785 93.7232 152.347 88.0826 149.601L106.339 112.099L106.339 70.3899Z" fill="#00ED92"/>
<path fill-rule="evenodd" clip-rule="evenodd" d="M106.015 25.5C109.328 25.5 112.015 28.1863 112.015 31.5V38.5C112.015 41.8137 109.328 44.5 106.015 44.5C102.701 44.5 100.015 41.8137 100.015 38.5V31.5C100.015 28.1863 102.701 25.5 106.015 25.5Z" fill="#180041"/>
<path fill-rule="evenodd" clip-rule="evenodd" d="M153.977 42.417C156.684 44.3294 157.327 48.0735 155.415 50.7797L151.415 56.44C149.502 59.1461 145.758 59.7896 143.052 57.8772C140.346 55.9648 139.702 52.2207 141.615 49.5145L145.615 43.8543C147.527 41.1481 151.271 40.5046 153.977 42.417Z" fill="#180041"/>
<path fill-rule="evenodd" clip-rule="evenodd" d="M78.5 30C78.5 26.6863 81.1863 24 84.5 24L127 24C130.314 24 133 26.6863 133 30C133 33.3137 130.314 36 127 36L84.5 36C81.1863 36 78.5 33.3137 78.5 30Z" fill="#180041"/>
<path fill-rule="evenodd" clip-rule="evenodd" d="M107 177C142.899 177 172 147.899 172 112C172 76.1015 142.899 47 107 47C71.1015 47 42 76.1015 42 112C42 147.899 71.1015 177 107 177ZM107 185C147.317 185 180 152.317 180 112C180 71.6832 147.317 39 107 39C66.6832 39 34 71.6832 34 112C34 152.317 66.6832 185 107 185Z" fill="#180041"/>
<path fill-rule="evenodd" clip-rule="evenodd" d="M106.53 69.2887C109.291 69.2887 111.53 71.5273 111.53 74.2887V112.289C111.53 113.042 111.36 113.785 111.033 114.462L95.0029 147.673C93.8026 150.16 90.8135 151.203 88.3266 150.003C85.8397 148.803 84.7967 145.813 85.9971 143.327L101.53 111.145V74.2887C101.53 71.5273 103.768 69.2887 106.53 69.2887Z" fill="#180041"/>
<path d="M118 113C118 119.627 112.627 125 106 125C99.3726 125 94 119.627 94 113C94 106.373 99.3726 101 106 101C112.627 101 118 106.373 118 113Z" fill="#180041"/>
<path fill-rule="evenodd" clip-rule="evenodd" d="M106.5 163C134.39 163 157 140.39 157 112.5C157 84.6096 134.39 62 106.5 62C78.6096 62 56 84.6096 56 112.5C56 140.39 78.6096 163 106.5 163ZM106.5 169C137.704 169 163 143.704 163 112.5C163 81.2959 137.704 56 106.5 56C75.2959 56 50 81.2959 50 112.5C50 143.704 75.2959 169 106.5 169Z" fill="#180041"/>
<path d="M112 113C112 116.314 109.314 119 106 119C102.686 119 100 116.314 100 113C100 109.686 102.686 107 106 107C109.314 107 112 109.686 112 113Z" fill="white"/>
</svg>
